X:30
T:Pigeon on the Gate
M:2/2
L:1/8
K:EDor
dc||"Emi"BE ~E2 BEdE|BE ~E2 dBAF|"D"~D3 F AFFE|DEFA BAFA
|"Emi"BE ~E2 BEdE|BE ~E2 B2 AF|"D"D2 FA dfec|"D"dBAF "Emi"E2FA:||:
"Emi"Beed efed|(3Bcd) ef gedB|"D"A2 dc d3 B|A2 FE DEFA|
"Emi"Beed efed|(3Bcd) ef g2 fg|"D"af (3gfe) fd ec|1dBAF "Emi"E2FA:||2dBA
F "Emi"E2dc||
